img/SEARCH/side-bar/calendar.svg

<svg width="24" height="24" viewBox="0 0 24 24" fill="none" xmlns="http://www.w3.org/2000/svg"><path d="M7 11h2v2H7v-2zm0 4h2v2H7v-2zm4-4h2v2h-2v-2zm0 4h2v2h-2v-2zm4-4h2v2h-2v-2zm0 4h2v2h-2v-2z" fill="#707070"/><path d="M5 22h14c1.103 0 2-.897 2-2V6c0-1.103-.897-2-2-2h-2V2h-2v2H9V2H7v2H5c-1.103 0-2 .897-2 2v14c0 1.103.897 2 2 2zM19 8l.001 12H5V8h14z" fill="#707070"/></svg>

<svg width="24" height="24" viewBox="0 0 24 24" fill="none" xmlns="http://www.w3.org/2000/svg">
<path d="M7 11H9V13H7V11ZM7 15H9V17H7V15ZM11 11H13V13H11V11ZM11 15H13V17H11V15ZM15 11H17V13H15V11ZM15 15H17V17H15V15Z" fill="#707070"/>
<path d="M5 22H19C20.103 22 21 21.103 21 20V6C21 4.897 20.103 4 19 4H17V2H15V4H9V2H7V4H5C3.897 4 3 4.897 3 6V20C3 21.103 3.897 22 5 22ZM19 8L19.001 20H5V8H19Z" fill="#707070"/>
</svg>
